X: 212
T: Jieme guandeng
L: 1/8
M: 2/4
K: D
z f f e [I:setbarnb 1]| 
f ed2 | 
ff2e/ d/ | 
e d B d- | 
d f c B/ B/ | 
A FA2 | 
B d B F | 
A4 | 
d F F F | 
B d B d | 
B d F E | 
F4 | 
d d/ d/ B/ d/ B/ A/ | 
B dF2 | 
A F/ F/ E F | 
E F z f | 
e f B e | 
d2c/ e/ c/ B/ | 
A2B/ c/ B | 
A4 |]

@@@ Tune index: 9086
